X:5043
T:Accidental Jig
M:6/8
L:1/8
Q:180
C:Aidan Crossey
R:Jig
K:D
|:F2A|dAF BGE|cde d2A|BGE EFG|ABA ABc|
dAF BGE|cde d2A|BAG FGE|D3:||
|:f2g|aba a2f|gag g2e|fgf a2f|edB Afg|
aba a2f|gag g2e|fgf Ace|d3:||
